docs/images/graphql-logo.svg

<svg xmlns="http://www.w3.org/2000/svg" viewBox="0 0 131 144" fill="#2c333a"><path fill-rule="evenodd" clip-rule="evenodd" d="M65.5 6.46777L103.2 28.2339V71.7661L65.5 93.5322L27.8 71.7661V28.2339L65.5 6.46777ZM32.03 30.6761V62.6517L59.7217 14.6883L32.03 30.6761ZM65.5 13.14L33.5783 68.43H97.4217L65.5 13.14ZM93.1917 72.66H37.8083L65.5 88.6478L93.1917 72.66ZM98.97 62.6517L71.2783 14.6883L98.97 30.6761V62.6517Z"/><circle cx="29.91" cy="29.45" r="8.91"/><circle cx="29.91" cy="70.545" r="8.91"/><circle cx="65.5" cy="91.09" r="8.91"/><circle cx="101.085" cy="70.545" r="8.91"/><circle cx="101.085" cy="29.455" r="8.91"/><circle cx="65.5" cy="8.91" r="8.91"/><path d="M9.612 137.84C6.77867 137.84 4.58 137.024 3.016 135.392C1.452 133.76 0.624667 131.573 0.534 128.83C0.511334 128.15 0.5 127.073 0.5 125.6C0.5 124.127 0.511334 123.05 0.534 122.37C0.624667 119.627 1.452 117.44 3.016 115.808C4.58 114.176 6.77867 113.36 9.612 113.36C11.5387 113.36 13.1593 113.723 14.474 114.448C15.7887 115.173 16.7633 116.035 17.398 117.032C18.0553 118.007 18.4067 118.879 18.452 119.65V119.718C18.452 119.899 18.384 120.047 18.248 120.16C18.112 120.273 17.942 120.33 17.738 120.33H16.99C16.786 120.33 16.6387 120.285 16.548 120.194C16.4573 120.103 16.3667 119.922 16.276 119.65C15.8907 118.449 15.1427 117.44 14.032 116.624C12.944 115.808 11.4707 115.4 9.612 115.4C7.504 115.4 5.838 115.978 4.614 117.134C3.41267 118.29 2.76667 120.092 2.676 122.54C2.65333 123.22 2.642 124.24 2.642 125.6C2.642 126.96 2.65333 127.98 2.676 128.66C2.76667 131.108 3.41267 132.91 4.614 134.066C5.838 135.222 7.504 135.8 9.612 135.8C11.72 135.8 13.42 135.199 14.712 133.998C16.004 132.797 16.65 131.017 16.65 128.66V126.926H10.734C10.5073 126.926 10.326 126.858 10.19 126.722C10.054 126.563 9.986 126.371 9.986 126.144V125.668C9.986 125.441 10.054 125.26 10.19 125.124C10.326 124.965 10.5073 124.886 10.734 124.886H18.01C18.2593 124.886 18.452 124.954 18.588 125.09C18.724 125.226 18.792 125.419 18.792 125.668V128.66C18.792 130.473 18.4293 132.071 17.704 133.454C16.9787 134.837 15.9247 135.913 14.542 136.684C13.1593 137.455 11.516 137.84 9.612 137.84Z"/><path d="M24.3361 137.5C24.1095 137.5 23.9281 137.432 23.7921 137.296C23.6561 137.16 23.5881 136.979 23.5881 136.752V120.602C23.5881 120.375 23.6561 120.194 23.7921 120.058C23.9281 119.899 24.1095 119.82 24.3361 119.82H24.8801C25.1068 119.82 25.2881 119.899 25.4241 120.058C25.5828 120.194 25.6621 120.375 25.6621 120.602V122.166C26.4781 120.602 28.0195 119.82 30.2861 119.82H31.5441C31.7708 119.82 31.9521 119.888 32.0881 120.024C32.2241 120.16 32.2921 120.341 32.2921 120.568V121.044C32.2921 121.271 32.2241 121.452 32.0881 121.588C31.9521 121.724 31.7708 121.792 31.5441 121.792H30.0821C28.7221 121.792 27.6455 122.189 26.8521 122.982C26.0588 123.775 25.6621 124.852 25.6621 126.212V136.752C25.6621 136.979 25.5828 137.16 25.4241 137.296C25.2881 137.432 25.1068 137.5 24.8801 137.5H24.3361Z"/><path d="M39.9028 137.84C38.8148 137.84 37.8061 137.613 36.8768 137.16C35.9475 136.707 35.1995 136.095 34.6328 135.324C34.0888 134.553 33.8168 133.703 33.8168 132.774C33.8168 131.278 34.4175 130.054 35.6188 129.102C36.8428 128.15 38.4861 127.538 40.5488 127.266L45.9208 126.518V125.328C45.9208 124.081 45.5355 123.129 44.7648 122.472C44.0168 121.792 42.8608 121.452 41.2968 121.452C40.1408 121.452 39.1888 121.679 38.4408 122.132C37.7155 122.585 37.2508 123.129 37.0468 123.764C36.9561 124.036 36.8428 124.229 36.7068 124.342C36.5935 124.433 36.4348 124.478 36.2308 124.478H35.7548C35.5508 124.478 35.3695 124.41 35.2108 124.274C35.0748 124.115 35.0068 123.934 35.0068 123.73C35.0068 123.231 35.2335 122.653 35.6868 121.996C36.1401 121.316 36.8428 120.727 37.7948 120.228C38.7468 119.729 39.9141 119.48 41.2968 119.48C43.7221 119.48 45.4448 120.058 46.4648 121.214C47.4848 122.37 47.9948 123.775 47.9948 125.43V136.752C47.9948 136.979 47.9268 137.16 47.7908 137.296C47.6548 137.432 47.4735 137.5 47.2468 137.5H46.6688C46.4421 137.5 46.2608 137.432 46.1248 137.296C45.9888 137.16 45.9208 136.979 45.9208 136.752V135.154C45.4221 135.902 44.6855 136.537 43.7108 137.058C42.7588 137.579 41.4895 137.84 39.9028 137.84ZM40.2428 135.868C41.8975 135.868 43.2575 135.324 44.3228 134.236C45.3881 133.148 45.9208 131.584 45.9208 129.544V128.388L41.5348 129C39.6761 129.249 38.2708 129.68 37.3188 130.292C36.3668 130.904 35.8908 131.675 35.8908 132.604C35.8908 133.647 36.3215 134.451 37.1828 135.018C38.0668 135.585 39.0868 135.868 40.2428 135.868Z"/><path d="M54.1533 143.96C53.9267 143.96 53.7453 143.892 53.6093 143.756C53.4733 143.62 53.4053 143.439 53.4053 143.212V120.568C53.4053 120.341 53.4733 120.16 53.6093 120.024C53.7453 119.888 53.9267 119.82 54.1533 119.82H54.7313C54.958 119.82 55.1393 119.888 55.2753 120.024C55.4113 120.16 55.4793 120.341 55.4793 120.568V122.166C56.794 120.375 58.698 119.48 61.1913 119.48C63.6393 119.48 65.4413 120.262 66.5973 121.826C67.776 123.367 68.3993 125.271 68.4673 127.538C68.49 127.765 68.5013 128.139 68.5013 128.66C68.5013 129.181 68.49 129.555 68.4673 129.782C68.3993 132.049 67.776 133.964 66.5973 135.528C65.4413 137.069 63.6393 137.84 61.1913 137.84C58.7207 137.84 56.8167 136.945 55.4793 135.154V143.212C55.4793 143.439 55.4113 143.62 55.2753 143.756C55.1393 143.892 54.958 143.96 54.7313 143.96H54.1533ZM60.9873 135.868C62.8233 135.868 64.1607 135.29 64.9993 134.134C65.8607 132.955 66.3253 131.448 66.3933 129.612C66.416 129.385 66.4273 129.068 66.4273 128.66C66.4273 126.552 66.0193 124.829 65.2033 123.492C64.3873 122.132 62.982 121.452 60.9873 121.452C59.1967 121.452 57.848 122.053 56.9413 123.254C56.0347 124.433 55.5473 125.827 55.4793 127.436L55.4453 128.762L55.4793 130.088C55.502 131.063 55.7173 131.992 56.1253 132.876C56.5333 133.737 57.1453 134.451 57.9613 135.018C58.7773 135.585 59.786 135.868 60.9873 135.868Z"/><path d="M73.9092 137.5C73.6825 137.5 73.5012 137.432 73.3652 137.296C73.2292 137.16 73.1612 136.979 73.1612 136.752V114.108C73.1612 113.881 73.2292 113.7 73.3652 113.564C73.5012 113.428 73.6825 113.36 73.9092 113.36H74.4872C74.7138 113.36 74.8952 113.428 75.0312 113.564C75.1672 113.7 75.2352 113.881 75.2352 114.108V122.166C75.9152 121.282 76.6859 120.613 77.5472 120.16C78.4312 119.707 79.5645 119.48 80.9472 119.48C83.1685 119.48 84.8799 120.194 86.0812 121.622C87.2825 123.027 87.8832 124.852 87.8832 127.096V136.752C87.8832 136.979 87.8152 137.16 87.6792 137.296C87.5432 137.432 87.3619 137.5 87.1352 137.5H86.5572C86.3305 137.5 86.1492 137.432 86.0132 137.296C85.8772 137.16 85.8092 136.979 85.8092 136.752V127.266C85.8092 125.43 85.3559 124.002 84.4492 122.982C83.5652 121.962 82.2845 121.452 80.6072 121.452C78.9752 121.452 77.6719 121.973 76.6972 123.016C75.7225 124.036 75.2352 125.453 75.2352 127.266V136.752C75.2352 136.979 75.1672 137.16 75.0312 137.296C74.8952 137.432 74.7138 137.5 74.4872 137.5H73.9092Z"/><path d="M109.059 139.71C108.719 139.71 108.356 139.449 107.971 138.928L106.475 136.854C105.115 137.511 103.528 137.84 101.715 137.84C95.8897 137.84 92.8977 134.712 92.7391 128.456C92.7164 127.776 92.7051 126.824 92.7051 125.6C92.7051 124.376 92.7164 123.424 92.7391 122.744C92.8297 119.661 93.6684 117.327 95.2551 115.74C96.8417 114.153 98.9951 113.36 101.715 113.36C104.435 113.36 106.588 114.153 108.175 115.74C109.762 117.327 110.6 119.661 110.691 122.744C110.736 124.104 110.759 125.056 110.759 125.6C110.759 126.144 110.736 127.096 110.691 128.456C110.578 131.697 109.75 134.077 108.209 135.596L110.385 138.656C110.453 138.792 110.487 138.917 110.487 139.03C110.487 139.211 110.419 139.37 110.283 139.506C110.147 139.642 109.988 139.71 109.807 139.71H109.059ZM101.715 135.8C103.755 135.8 105.376 135.188 106.577 133.964C107.801 132.717 108.458 130.825 108.549 128.286C108.594 126.926 108.617 126.031 108.617 125.6C108.617 125.169 108.594 124.274 108.549 122.914C108.458 120.375 107.801 118.494 106.577 117.27C105.353 116.023 103.732 115.4 101.715 115.4C99.6977 115.4 98.0771 116.023 96.8531 117.27C95.6291 118.494 94.9717 120.375 94.8811 122.914C94.8584 123.594 94.8471 124.489 94.8471 125.6C94.8471 126.711 94.8584 127.606 94.8811 128.286C94.9717 130.825 95.6177 132.717 96.8191 133.964C98.0431 135.188 99.6751 135.8 101.715 135.8Z"/><path d="M116.917 137.5C116.69 137.5 116.509 137.432 116.373 137.296C116.237 137.16 116.169 136.979 116.169 136.752V114.448C116.169 114.221 116.237 114.04 116.373 113.904C116.509 113.768 116.69 113.7 116.917 113.7H117.563C117.789 113.7 117.971 113.768 118.107 113.904C118.243 114.04 118.311 114.221 118.311 114.448V135.46H130.041C130.29 135.46 130.483 135.528 130.619 135.664C130.755 135.8 130.823 135.993 130.823 136.242V136.752C130.823 136.979 130.743 137.16 130.585 137.296C130.449 137.432 130.267 137.5 130.041 137.5H116.917Z"/></svg>

<svg xmlns="http://www.w3.org/2000/svg" viewBox="0 0 131 144" fill="#2c333a"><path fill-rule="evenodd" clip-rule="evenodd" d="M65.5 6.468l37.7 21.766v43.532L65.5 93.532 27.8 71.766V28.234L65.5 6.468zM32.03 30.676v31.976l27.692-47.964L32.03 30.676zM65.5 13.14L33.578 68.43h63.844L65.5 13.14zm27.692 59.52H37.808L65.5 88.648 93.192 72.66zm5.778-10.008L71.278 14.688 98.97 30.676v31.976z"/><circle cx="29.91" cy="29.45" r="8.91"/><circle cx="29.91" cy="70.545" r="8.91"/><circle cx="65.5" cy="91.09" r="8.91"/><circle cx="101.085" cy="70.545" r="8.91"/><circle cx="101.085" cy="29.455" r="8.91"/><circle cx="65.5" cy="8.91" r="8.91"/><path d="M9.612 137.84c-2.833 0-5.032-.816-6.596-2.448-1.564-1.632-2.391-3.819-2.482-6.562-.023-.68-.034-1.757-.034-3.23s.011-2.55.034-3.23c.09-2.743.918-4.93 2.482-6.562 1.564-1.632 3.763-2.448 6.596-2.448 1.927 0 3.547.363 4.862 1.088 1.315.725 2.29 1.587 2.924 2.584.657.975 1.009 1.847 1.054 2.618v.068a.548.548 0 01-.204.442.771.771 0 01-.51.17h-.748c-.204 0-.351-.045-.442-.136-.09-.091-.181-.272-.272-.544-.385-1.201-1.133-2.21-2.244-3.026-1.088-.816-2.561-1.224-4.42-1.224-2.108 0-3.774.578-4.998 1.734-1.201 1.156-1.847 2.958-1.938 5.406-.023.68-.034 1.7-.034 3.06s.011 2.38.034 3.06c.09 2.448.737 4.25 1.938 5.406 1.224 1.156 2.89 1.734 4.998 1.734s3.808-.601 5.1-1.802c1.292-1.201 1.938-2.981 1.938-5.338v-1.734h-5.916c-.227 0-.408-.068-.544-.204a.858.858 0 01-.204-.578v-.476c0-.227.068-.408.204-.544a.68.68 0 01.544-.238h7.276c.25 0 .442.068.578.204.136.136.204.329.204.578v2.992c0 1.813-.363 3.411-1.088 4.794a7.753 7.753 0 01-3.162 3.23c-1.383.771-3.026 1.156-4.93 1.156zm14.724-.34c-.226 0-.408-.068-.544-.204-.136-.136-.204-.317-.204-.544v-16.15c0-.227.068-.408.204-.544a.68.68 0 01.544-.238h.544a.68.68 0 01.544.238.68.68 0 01.238.544v1.564c.816-1.564 2.358-2.346 4.624-2.346h1.258c.227 0 .408.068.544.204.136.136.204.317.204.544v.476c0 .227-.068.408-.204.544-.136.136-.317.204-.544.204h-1.462c-1.36 0-2.437.397-3.23 1.19-.793.793-1.19 1.87-1.19 3.23v10.54a.68.68 0 01-.238.544c-.136.136-.317.204-.544.204h-.544zm15.567.34a6.813 6.813 0 01-3.026-.68c-.93-.453-1.678-1.065-2.244-1.836a4.326 4.326 0 01-.816-2.55c0-1.496.6-2.72 1.802-3.672 1.224-.952 2.867-1.564 4.93-1.836l5.372-.748v-1.19c0-1.247-.386-2.199-1.156-2.856-.748-.68-1.904-1.02-3.468-1.02-1.156 0-2.108.227-2.856.68-.726.453-1.19.997-1.394 1.632-.09.272-.204.465-.34.578-.114.091-.272.136-.476.136h-.476a.812.812 0 01-.544-.204.813.813 0 01-.204-.544c0-.499.227-1.077.68-1.734.453-.68 1.156-1.269 2.108-1.768.952-.499 2.12-.748 3.502-.748 2.425 0 4.148.578 5.168 1.734 1.02 1.156 1.53 2.561 1.53 4.216v11.322c0 .227-.068.408-.204.544-.136.136-.317.204-.544.204h-.578c-.227 0-.408-.068-.544-.204-.136-.136-.204-.317-.204-.544v-1.598c-.499.748-1.236 1.383-2.21 1.904-.952.521-2.221.782-3.808.782zm.34-1.972c1.654 0 3.014-.544 4.08-1.632 1.065-1.088 1.598-2.652 1.598-4.692v-1.156l-4.386.612c-1.859.249-3.264.68-4.216 1.292-.952.612-1.428 1.383-1.428 2.312 0 1.043.43 1.847 1.292 2.414.884.567 1.904.85 3.06.85zm13.91 8.092c-.226 0-.408-.068-.544-.204-.136-.136-.204-.317-.204-.544v-22.644c0-.227.068-.408.204-.544.136-.136.318-.204.544-.204h.578c.227 0 .408.068.544.204.136.136.204.317.204.544v1.598c1.315-1.791 3.219-2.686 5.712-2.686 2.448 0 4.25.782 5.406 2.346 1.179 1.541 1.802 3.445 1.87 5.712.023.227.034.601.034 1.122 0 .521-.011.895-.034 1.122-.068 2.267-.691 4.182-1.87 5.746-1.156 1.541-2.958 2.312-5.406 2.312-2.47 0-4.374-.895-5.712-2.686v8.058c0 .227-.068.408-.204.544-.136.136-.317.204-.544.204h-.578zm6.834-8.092c1.836 0 3.174-.578 4.012-1.734.862-1.179 1.326-2.686 1.394-4.522.023-.227.034-.544.034-.952 0-2.108-.408-3.831-1.224-5.168-.816-1.36-2.221-2.04-4.216-2.04-1.79 0-3.139.601-4.046 1.802-.906 1.179-1.394 2.573-1.462 4.182l-.034 1.326.034 1.326a6.97 6.97 0 00.646 2.788 5.388 5.388 0 001.836 2.142c.816.567 1.825.85 3.026.85zM73.91 137.5c-.227 0-.409-.068-.545-.204-.136-.136-.204-.317-.204-.544v-22.644c0-.227.068-.408.204-.544.136-.136.318-.204.544-.204h.578c.227 0 .408.068.544.204.136.136.204.317.204.544v8.058c.68-.884 1.45-1.553 2.312-2.006.884-.453 2.017-.68 3.4-.68 2.221 0 3.933.714 5.134 2.142 1.201 1.405 1.802 3.23 1.802 5.474v9.656c0 .227-.068.408-.204.544-.136.136-.317.204-.544.204h-.578c-.227 0-.408-.068-.544-.204-.136-.136-.204-.317-.204-.544v-9.486c0-1.836-.453-3.264-1.36-4.284-.884-1.02-2.165-1.53-3.842-1.53-1.632 0-2.935.521-3.91 1.564-.975 1.02-1.462 2.437-1.462 4.25v9.486c0 .227-.068.408-.204.544-.136.136-.317.204-.544.204h-.578zm35.149 2.21c-.34 0-.703-.261-1.088-.782l-1.496-2.074c-1.36.657-2.947.986-4.76.986-5.825 0-8.817-3.128-8.976-9.384a91.315 91.315 0 01-.034-2.856c0-1.224.011-2.176.034-2.856.09-3.083.93-5.417 2.516-7.004 1.587-1.587 3.74-2.38 6.46-2.38 2.72 0 4.873.793 6.46 2.38 1.587 1.587 2.425 3.921 2.516 7.004.045 1.36.068 2.312.068 2.856s-.023 1.496-.068 2.856c-.113 3.241-.941 5.621-2.482 7.14l2.176 3.06a.847.847 0 01.102.374c0 .181-.068.34-.204.476a.653.653 0 01-.476.204h-.748zm-7.344-3.91c2.04 0 3.661-.612 4.862-1.836 1.224-1.247 1.881-3.139 1.972-5.678.045-1.36.068-2.255.068-2.686 0-.431-.023-1.326-.068-2.686-.091-2.539-.748-4.42-1.972-5.644-1.224-1.247-2.845-1.87-4.862-1.87s-3.638.623-4.862 1.87c-1.224 1.224-1.881 3.105-1.972 5.644-.023.68-.034 1.575-.034 2.686s.011 2.006.034 2.686c.09 2.539.737 4.431 1.938 5.678 1.224 1.224 2.856 1.836 4.896 1.836zm15.202 1.7c-.227 0-.408-.068-.544-.204-.136-.136-.204-.317-.204-.544v-22.304c0-.227.068-.408.204-.544.136-.136.317-.204.544-.204h.646c.226 0 .408.068.544.204.136.136.204.317.204.544v21.012h11.73c.249 0 .442.068.578.204.136.136.204.329.204.578v.51c0 .227-.08.408-.238.544-.136.136-.318.204-.544.204h-13.124z"/></svg>
